X:19605
T:Sally Sloane's Jig
T:Trip to Cottingham
R:Jig
C:Trad.
O:England via Australia
Z:Paul Hardy's Annex Tunebook 2015 (see www.paulhardy.net). Creative Commons cc by-nc-sa licenced.
M:6/8
L:1/8
Q:3/8=100
K:D
A|"D"FAd FAd|"G"GBd GBd|"D"FAd dcd|"A"f2e e2A|"D"FAd FAd|"G"GBd GBd|"D"FAd dcd|"A"e2c "D"d2:|
|:e|"D"f3 def|"Em"f2e e2f|"G"g2e cde|"A"efe d2e|"D"f3 def|"Em"f2e e2f|"G"g2e cde|"A"efe "D"d2:|
|:F|"D"A3 F2G|A3 F2G|AFA dAd|"A"fed cBA|"Em"G3 E2F|G3 E2F|"A"GBA GFE|"D"D3 D2:|

